kiosk-igrinskij/images/cd2a31f5391b7655914aa2ba06ca48d1.svg

<svg fill="none" height="16" viewBox="0 0 16 16" width="16" xmlns="http://www.w3.org/2000/svg"><g fill="#f1e9dd"><path d="m15.4749.474942-7.66127 3.948998-.46166.46166c.42914.24745.84827.56565 1.23437.95175l1.52616 1.52619c.3861.3861.7043.8053.9518 1.23437l.4616-.46166z"/><path d="m7.57039 12.0917.41465-.4147c.13369-.1337.33219-.2003.55882-.1875.52884.0297.99192-.1258 1.30385-.4377.63259-.6326.37929-1.91513-.56458-2.85899l-1.52619-1.52619c-.94386-.94387-2.22642-1.19714-2.85897-.56459-.31193.31193-.46739.77502-.43768 1.30385.0127.2266-.05387.42514-.18756.55883l-.41465.41465c-.13369.13369-.33219.2003-.55883.18756-.52883-.02971-.99192.12575-1.30385.43768l-1.478927 1.4789c-.914543.9146-.5484019 2.7688.816267 4.1335 1.36467 1.3647 3.21894 1.7308 4.13348.8163l1.47893-1.479c.31193-.3119.46739-.775.43768-1.3038-.01271-.2267.05387-.4251.18756-.5588z"/></g></svg>

<svg width="16" height="16" viewBox="0 0 16 16" fill="none" xmlns="http://www.w3.org/2000/svg">
<path d="M15.4749 0.474942L7.81363 4.42394L7.35197 4.8856C7.78111 5.13305 8.20024 5.45125 8.58634 5.83735L10.1125 7.36354C10.4986 7.74964 10.8168 8.16884 11.0643 8.59791L11.5259 8.13625L15.4749 0.474942Z" fill="#F1E9DD"/>
<path d="M7.57039 12.0917L7.98504 11.677C8.11873 11.5433 8.31723 11.4767 8.54386 11.4895C9.0727 11.5192 9.53578 11.3637 9.84771 11.0518C10.4803 10.4192 10.227 9.13667 9.28313 8.19281L7.75694 6.66662C6.81308 5.72275 5.53052 5.46948 4.89797 6.10203C4.58604 6.41396 4.43058 6.87705 4.46029 7.40588C4.47299 7.63248 4.40642 7.83102 4.27273 7.96471L3.85808 8.37936C3.72439 8.51305 3.52589 8.57966 3.29925 8.56692C2.77042 8.53721 2.30733 8.69267 1.9954 9.0046L0.516473 10.4835C-0.39807 11.3981 -0.0319289 13.2523 1.33274 14.617C2.69741 15.9817 4.55168 16.3478 5.46622 15.4333L6.94515 13.9543C7.25708 13.6424 7.41254 13.1793 7.38283 12.6505C7.37012 12.4238 7.4367 12.2254 7.57039 12.0917Z" fill="#F1E9DD"/>
</svg>
